X: 11451
M: 6/8
L: 1/8
K: D
{B}AGF EFG | F/G/AF D2f/g/ | afd ecA | B2A Bcd H|]
.D2z/d/ {e}dcd | .E2z/e/ efg | .D2z/d/ {e}dcd | TB2A Bcd |\
.D2z/d/ {e}dcd | .E2z/e/ efg | agf edc | TB2A Bcd !segno! |]


